X: 46
T:Gee Ho Dobin. WCl.46
T:How Do You Do,Sir,aka. WCl.46
M:6/8
L:1/8
Q:80
C:How Do You Do,Sir,aka.
S:William Clarke MS,Lincoln,1770.
R:Air
O:Lincoln
A:England
Z:vmp.Barry Callaghan
K:D
D|F>GA BcB|B>cB A>Bc|d>ef B>cd|e>cA d2::!
c/2d/2|e>fe ecA|ecA A>FG|A>BA A>GF|G>EF G3|!
F2A> FD2|G2 B> G E2|FGA Bcd|edc d3:||
